X:847
T:Xiraldilla (CT 305)
R:Xiraldilla
C:Tradicional
S:Msica Tradicional Asturiana, (C) Tello & Tito. Asturies, 2001.
S:http://pagina.de/MusTradAst <telloytito@asturies.org>
N:Xiraldilla, dictada por Alfredo Garca Muiz, de diez y ocho aos, de Llanuces, ayuntamiento de Quirs.
N:Una vez ya grabada en la plancha la cancin correspondiente a esta nota, pudimos completar la letra.
A:Asturies
O:Llanuces (Quirs)
Z:Cancioneru de Torner 305
M:3/8
L:1/8
Q:3/8=88
K:C
|GGG|GG_B|d2 c|d3|
dde|fed|c2 _B|c3|
_BBc|dc_B|A2 G|A3|
G^FG|A_BA|G2 ^F|G2 z||
W:Por la escalera yo vi
W:tu lindo talle bajar;
W:no te lo pude medir,
W:mira qu pena me da.
W:
W:Mira que pena me da,
W:qu penita y qu dolor:
W:vivir no puedo sin ti,
W:nia de mi corazn.
W:
W:Vivir no puedo sin ti,
W:nia de mi corazn;
W:dame la mano, paloma,
W:ai! que me muero de amor.
W:
